src/dsmComponents/Icons/minimise-20px.svg

<svg width="20" height="20" xmlns="http://www.w3.org/2000/svg" xmlns:xlink="http://www.w3.org/1999/xlink"><defs><path d="M9.25 10.75v8.75h-2.5V15l-5 5L0 18.25l5-5H.5v-2.5h8.75zm9-10.75L20 1.75l-5 5h4.5v2.5h-8.75V.5h2.5V5l5-5z" id="minimise-20px_svg__a"/></defs><use fill="#737373" xlink:href="#minimise-20px_svg__a" fill-rule="evenodd"/></svg>

<?xml version="1.0" encoding="UTF-8"?>
<svg width="20px" height="20px" viewBox="0 0 20 20" version="1.1" xmlns="http://www.w3.org/2000/svg" xmlns:xlink="http://www.w3.org/1999/xlink">
    <!-- Generator: Sketch 59.1 (86144) - https://sketch.com -->
    <title>minimise-20px</title>
    <desc>Created with Sketch.</desc>
    <defs>
        <path d="M9.25,10.75 L9.25,19.5 L6.75,19.5 L6.75,15 L1.75,20 L0,18.25 L5,13.25 L0.5,13.25 L0.5,10.75 L9.25,10.75 Z M18.25,1.77635684e-15 L20,1.75 L15,6.75 L19.5,6.75 L19.5,9.25 L10.75,9.25 L10.75,0.5 L13.25,0.5 L13.25,5 L18.25,1.77635684e-15 Z" id="path-1"></path>
    </defs>
    <g id="Final" stroke="none" stroke-width="1" fill="none" fill-rule="evenodd">
        <g id="All-Nucleo-Icons" transform="translate(-463.000000, -5014.000000)">
            <g id="Solo/Nucleo/20px/minimise" transform="translate(461.000000, 5012.000000)">
                <g transform="translate(2.000000, 2.000000)" id="minimise-double-74">
                    <g>
                        <g id="Colour/Default-Colour">
                            <mask id="mask-2" fill="white">
                                <use xlink:href="#path-1"></use>
                            </mask>
                            <g id="Mask" fill-rule="nonzero"></g>
                            <g id="colour/neutral/chia" mask="url(#mask-2)" fill="#737373">
                                <g transform="translate(-22.000000, -22.000000)" id="Colour">
                                    <rect x="0" y="0" width="64" height="64"></rect>
                                </g>
                            </g>
                        </g>
                    </g>
                </g>
            </g>
        </g>
    </g>
</svg>
